X: 10
T: In Odess'
R: jig
M: 6/8
L: 1/8
K: _B_e^F	% D freygish
|: "D"F2G A2c | "Gm"BAG "D"A3 | "D"FGA "Cm"GFE | "D"D2F A2d \
|  "D"F2G A2c | "Gm"BAG "D"A3 | "D"FGA "Cm"GFE | "D"D6 :|
K: D
|: "D"d2z A2G | FGA- A2F | "A7"GFE- E2G | "D"F2G "A7"^G2A \
|  "D"d2z A2G | FGA- A2F | "A7"GFE- EFE |1 "D"D3 z2A :|2 "D"D2D "D7"G2A ||
K: G
|: "G"B6- | B2A "D7"cBA | "G"B2G- G3 | z2G "(Gm)"A2_B \
|  "A7"^c2d c2_B | ^c2d c2_B | "D"A6 | "D7"z2D G2A |
|  "G"B6- | B2A "D7"cBA | "G"B2G- G2_B- | "Gm"B3- BzA \
|  "D"A2G G2F | FDF "Cm"_EDC |1 "D"D6 | "D7"z2D G2A :|2 "D"D6- | D6 |]

%%sep 1 1 500

